assets/icons/image-preview.svg

<svg xmlns="http://www.w3.org/2000/svg" viewBox="0 0 48 48" role="presentation" aria-hidden="true"><path fill-rule="evenodd" clip-rule="evenodd" d="M9 15.2727C9 14.4047 9.3448 13.5723 9.95856 12.9586C10.5723 12.3448 11.4047 12 12.2727 12H36.2727C37.1407 12 37.9731 12.3448 38.5869 12.9586C39.2006 13.5723 39.5455 14.4047 39.5455 15.2727V32.7273C39.5455 33.5953 39.2006 34.4277 38.5869 35.0414C37.9731 35.6552 37.1407 36 36.2727 36H12.2727C11.4047 36 10.5723 35.6552 9.95856 35.0414C9.3448 34.4277 9 33.5953 9 32.7273V15.2727ZM11.1818 29.9055V32.7273C11.1818 33.3295 11.6705 33.8182 12.2727 33.8182H36.2727C36.5621 33.8182 36.8395 33.7032 37.0441 33.4987C37.2487 33.2941 37.3636 33.0166 37.3636 32.7273V29.9055L33.4509 25.9942C33.0418 25.5856 32.4873 25.3561 31.9091 25.3561C31.3309 25.3561 30.7764 25.5856 30.3673 25.9942L29.0873 27.2727L30.4982 28.6836C30.6054 28.7835 30.6913 28.9039 30.751 29.0378C30.8106 29.1716 30.8426 29.316 30.8452 29.4625C30.8478 29.609 30.8209 29.7545 30.766 29.8903C30.7111 30.0262 30.6295 30.1496 30.5259 30.2531C30.4223 30.3567 30.2989 30.4384 30.163 30.4933C30.0272 30.5481 29.8817 30.5751 29.7352 30.5725C29.5888 30.5699 29.4443 30.5379 29.3105 30.4782C29.1767 30.4186 29.0562 30.3326 28.9564 30.2255L21.4509 22.7215C21.0418 22.3129 20.4873 22.0834 19.9091 22.0834C19.3309 22.0834 18.7764 22.3129 18.3673 22.7215L11.1818 29.9069V29.9055ZM25.9091 18.5455C25.9091 18.1115 26.0815 17.6952 26.3884 17.3884C26.6952 17.0815 27.1115 16.9091 27.5455 16.9091C27.9794 16.9091 28.3957 17.0815 28.7025 17.3884C29.0094 17.6952 29.1818 18.1115 29.1818 18.5455C29.1818 18.9794 29.0094 19.3957 28.7025 19.7025C28.3957 20.0094 27.9794 20.1818 27.5455 20.1818C27.1115 20.1818 26.6952 20.0094 26.3884 19.7025C26.0815 19.3957 25.9091 18.9794 25.9091 18.5455Z" fill="currentColor"/></svg>

<svg xmlns="http://www.w3.org/2000/svg" aria-hidden="true" viewBox="0 0 48 48"><path fill="currentColor" fill-rule="evenodd" d="M9 15.273A3.27 3.27 0 0 1 12.273 12h24a3.273 3.273 0 0 1 3.272 3.273v17.454A3.273 3.273 0 0 1 36.274 36h-24A3.27 3.27 0 0 1 9 32.727zm2.182 14.633v2.821a1.09 1.09 0 0 0 1.09 1.091h24a1.09 1.09 0 0 0 1.092-1.09v-2.823l-3.913-3.91a2.18 2.18 0 0 0-3.084 0l-1.28 1.278 1.411 1.41a1.092 1.092 0 1 1-1.542 1.543l-7.505-7.504a2.18 2.18 0 0 0-3.084 0zm14.727-11.36a1.636 1.636 0 1 1 3.272 0 1.636 1.636 0 0 1-3.272 0" clip-rule="evenodd"/></svg>
